!!!OTL: WIE WIRD MIR SO BANG
!!!ARE: Europa, Mitteleuropa, Deutschland, Hunsrueck
!!!SCT: B0500A
!!!YEM: Copyright 1995, estate of Helmut Schaffrath.
**kern
*ICvox
*Ivox
*M6/8
*k[f#c#]
*D:
{8A
=1
8.A
16A
8A
8A
8A
8A
=2
8A
8d
8A
4A}
{8A
=3
8.G
16G
8G
8B
8A
8G
=4
2F#
8r}
{8F#
=5
8.E
16E
8E
8E
8G#
8B
=6
4d
8c#
4A}
{8c#
=7
8B
8B
8E
8c#
8c#
8B
=8
2A
8r}
{8A
=9
4B
8A
8G
8F#
8G
=10
4A
8G
4F#}
{8A
=11
4B
8A
8G
8F#
8G
=12
4A
8G
4F#}
{8A
=13
8c#
8B
8A
8c#
8B
8A
=14
2f#
8r}
{8d
=15
2d
8r
8B
=16
2A
8r}
{8A
=17
8c#
8B
8A
8g
8B
8c#
=18
2d
8r}
==
!!!AGN: Abschieds - Lied
!!!ONB: ESAC (Essen Associative Code) Database: BOEHME
!!!AMT: compound duple
!!!AIN: vox
!!!EED: Helmut Schaffrath
!!!EEV: 1.0
*-
